X:1
T:Title
%%score { 1 | 2 }
L:1/8
Q:1/4=100
M:4/4
K:C
V:1 treble nm="Grand Piano"
V:2 bass 
V:1
 EEE_E =E2 E[DF] | [EG]2 [Ec]2 [EG]4 | B2 BA G2 FD | E2 [FA]2 [EG]4 | EEE_E =E2 E[DF] | %5
w: Eva~A.~S.~Higgins * * * * * *|||||
 [EG]2 [Ec]2 [EG]4 | [FG]2 z2 [Fd]2 z2 | [Ec]6 z2 | B2 Bc d2 B2 | [Ec]2 [FA]2 [EG]4 | BBBc d2 B2 | %11
w: ||||||
 [DAc]2 [C^FA]2 [B,G]2 [G,DF]2 | EEE_E =E2 E[DF] | [EG]2 [Ec]2 [EG]4 | [FG]2 z2 [Fd]2 z2 | %15
w: ||||
 [Ec]6 z2 |] %16
w: |
V:2
 [C,G,C][C,G,C][C,G,C][C,^F,C] [C,G,C]2 [C,G,C][C,G,] | [C,C]2 [C,G,]2 [C,C]4 | %2
 [G,DF]2 [G,DF][G,CF] [G,B,F]2 [G,D][K:bass][G,B,] | [C,G,C]2 [C,C]2 [C,C]4 | %4
 [C,G,C][C,G,C][C,G,C][C,^F,C] [C,G,C]2 [C,G,C][C,G,] | [C,C]2 [C,G,]2 [C,C]4 | %6
 [G,B,]2 z2 [G,,G,]2 z2 | [C,G,]6 z2 | [G,D]2 [G,D][G,E] [G,B,F]2 [G,DF]2 | [C,C]2 [C,C]2 [C,C]4 | %10
 [G,D][G,D][K:treble][G,D][G,A,D] [G,B,G]2 [G,DG]2 | D,2 D,2 G,,2 B,,2 | %12
 [C,G,C][C,G,C][C,G,C][C,^F,C] [C,G,C]2 [C,G,C][C,G,] | [C,C]2 [C,G,]2 [C,C]4 | %14
 [G,B,]2 z2 [G,,G,]2 z2 | [C,G,]6 z2 |] %16

